X: 191
T: A Fig For A Kiss
R: slip jig
M: 9/8
K: Edorian
G2B E2B BAG|F2A D2A AGF|G2B E2B BAG|B/c/dB AGF DEF|
GAB E3 BAG|F2A D2A AGF|G2B E2B BAG|B/c/dB AGF E2B||
g2e g2e edB|f3 dB/c/d fed|g2e g2e edB|dBG GBd e2f|
g2e edB BAB|f3 dB/c/d fed|gfe fed ege|B/c/dB AGF E2F||

